icon-themes/HighContrast-SVG/scalable/actions/go-last.svg

<?xml version="1.0" encoding="UTF-8" standalone="no"?>
<!-- Generator: Adobe Illustrator 9.0, SVG Export Plug-In  -->
<svg
   xmlns:dc="http://purl.org/dc/elements/1.1/"
   xmlns:cc="http://creativecommons.org/ns#"
   xmlns:rdf="http://www.w3.org/1999/02/22-rdf-syntax-ns#"
   xmlns:svg="http://www.w3.org/2000/svg"
   xmlns="http://www.w3.org/2000/svg"
   xmlns:sodipodi="http://sodipodi.sourceforge.net/DTD/sodipodi-0.dtd"
   xmlns:inkscape="http://www.inkscape.org/namespaces/inkscape"
   width="48pt"
   height="48pt"
   viewBox="0 0 48 48"
   xml:space="preserve"
   id="svg2"
   sodipodi:version="0.32"
   inkscape:version="0.46"
   sodipodi:docname="go-last.svg"
   inkscape:output_extension="org.inkscape.output.svg.inkscape"><metadata
   id="metadata21"><rdf:RDF><cc:Work
       rdf:about=""><dc:format>image/svg+xml</dc:format><dc:type
         rdf:resource="http://purl.org/dc/dcmitype/StillImage" /></cc:Work></rdf:RDF></metadata><defs
   id="defs19" /><sodipodi:namedview
   inkscape:window-height="480"
   inkscape:window-width="640"
   inkscape:pageshadow="2"
   inkscape:pageopacity="0.0"
   guidetolerance="10.0"
   gridtolerance="10.0"
   objecttolerance="10.0"
   borderopacity="1.0"
   bordercolor="#666666"
   pagecolor="#ffffff"
   id="base" />
	<g
   id="Layer_x0020_3"
   style="fill-rule:nonzero;clip-rule:nonzero;fill:#FFFFFF;stroke:#FFFFFF;stroke-width:7.5901;stroke-linejoin:round;stroke-miterlimit:4;">
		<g
   id="g5">
			<path
   d="M20,41.1c0,0.3,0.3,0.3,0.5,0.2l16.6-16.9c0.5-0.5,0.4-0.7,0-1L20.5,6.7c-0.1-0.1-0.4-0.1-0.4,0.1v10H6.5c-0.3,0-0.5,0.2-0.5,0.4l0,13.3c0,0.3,0.2,0.5,0.5,0.5h13.5L20,41.1z"
   id="path7" />
			<path
   d="M37.9,41.2c-0.2,0-0.3-0.1-0.3-0.3V7.1c0-0.2,0.1-0.3,0.3-0.3h3.8c0.2,0,0.3,0.1,0.3,0.3v33.7c0,0.2-0.1,0.3-0.3,0.3h-3.8z"
   id="path9" />
			<path
   style="fill:#000000;stroke:none;"
   d="M20,41.1c0,0.3,0.3,0.3,0.5,0.2l16.6-16.9c0.5-0.5,0.4-0.7,0-1L20.5,6.7c-0.1-0.1-0.4-0.1-0.4,0.1v10H6.5c-0.3,0-0.5,0.2-0.5,0.4l0,13.3c0,0.3,0.2,0.5,0.5,0.5h13.5L20,41.1z"
   id="path11" />
			<path
   style="fill:#000000;stroke:none;"
   d="M37.9,41.2c-0.2,0-0.3-0.1-0.3-0.3V7.1c0-0.2,0.1-0.3,0.3-0.3h3.8c0.2,0,0.3,0.1,0.3,0.3v33.7c0,0.2-0.1,0.3-0.3,0.3h-3.8z"
   id="path13" />
		</g>
	</g>
	<g
   id="crop_x0020_marks"
   style="fill-rule:nonzero;clip-rule:nonzero;stroke:#000000;stroke-miterlimit:4;">
		<path
   style="fill:none;stroke:none;"
   d="M48,48H0V0h48v48z"
   id="path16" />
	</g>
</svg>

<?xml version="1.0" encoding="UTF-8" standalone="no"?>
<!-- Generator: Adobe Illustrator 9.0, SVG Export Plug-In  -->
<svg
   xmlns:dc="http://purl.org/dc/elements/1.1/"
   xmlns:cc="http://creativecommons.org/ns#"
   xmlns:rdf="http://www.w3.org/1999/02/22-rdf-syntax-ns#"
   xmlns:svg="http://www.w3.org/2000/svg"
   xmlns="http://www.w3.org/2000/svg"
   xmlns:sodipodi="http://sodipodi.sourceforge.net/DTD/sodipodi-0.dtd"
   xmlns:inkscape="http://www.inkscape.org/namespaces/inkscape"
   width="48"
   height="48"
   viewBox="0 0 48 48"
   xml:space="preserve"
   id="svg2"
   sodipodi:version="0.32"
   inkscape:version="0.46"
   sodipodi:docname="go-last.svg"
   inkscape:output_extension="org.inkscape.output.svg.inkscape"
   version="1.0"><metadata
   id="metadata21"><rdf:RDF><cc:Work
       rdf:about=""><dc:format>image/svg+xml</dc:format><dc:type
         rdf:resource="http://purl.org/dc/dcmitype/StillImage" /></cc:Work></rdf:RDF></metadata><defs
   id="defs19" /><sodipodi:namedview
   inkscape:window-height="682"
   inkscape:window-width="641"
   inkscape:pageshadow="2"
   inkscape:pageopacity="0.0"
   guidetolerance="10.0"
   gridtolerance="10.0"
   objecttolerance="10.0"
   borderopacity="1.0"
   bordercolor="#666666"
   pagecolor="#ffffff"
   id="base"
   showgrid="true"
   inkscape:object-paths="true"
   inkscape:object-nodes="true"
   inkscape:zoom="8.2333333"
   inkscape:cx="30"
   inkscape:cy="30"
   inkscape:window-x="0"
   inkscape:window-y="25"
   inkscape:current-layer="svg2"><inkscape:grid
     type="xygrid"
     id="grid2387"
     visible="true"
     enabled="true" /></sodipodi:namedview>
	<g
   id="Layer_x0020_3"
   style="fill:#ffffff;fill-rule:nonzero;stroke:#ffffff;stroke-width:7.59009981;stroke-linejoin:round;stroke-miterlimit:4">
		<g
   id="g5">
			<path
   d="M 20,41.1 C 20,41.4 20.3,41.4 20.5,41.3 L 37.1,24.4 C 37.6,23.9 37.5,23.7 37.1,23.4 L 20.5,6.7 C 20.4,6.6 20.1,6.6 20.1,6.8 L 20.1,16.8 L 6.5,16.8 C 6.2,16.8 6,17 6,17.2 L 6,30.5 C 6,30.8 6.2,31 6.5,31 L 20,31 L 20,41.1 z"
   id="path7" />
			<path
   d="M 37.9,41.2 C 37.7,41.2 37.6,41.1 37.6,40.9 L 37.6,7.1 C 37.6,6.9 37.7,6.8 37.9,6.8 L 41.7,6.8 C 41.9,6.8 42,6.9 42,7.1 L 42,40.8 C 42,41 41.9,41.1 41.7,41.1 L 37.9,41.1 L 37.9,41.2 z"
   id="path9" />
			<path
   style="fill:#000000;stroke:none"
   d="M 20,41.1 C 20,41.4 20.3,41.4 20.5,41.3 L 37.1,24.4 C 37.6,23.9 37.5,23.7 37.1,23.4 L 20.5,6.7 C 20.4,6.6 20.1,6.6 20.1,6.8 L 20.1,16.8 L 6.5,16.8 C 6.2,16.8 6,17 6,17.2 L 6,30.5 C 6,30.8 6.2,31 6.5,31 L 20,31 L 20,41.1 z"
   id="path11" />
			<path
   style="fill:#000000;stroke:none"
   d="M 37.9,41.2 C 37.7,41.2 37.6,41.1 37.6,40.9 L 37.6,7.1 C 37.6,6.9 37.7,6.8 37.9,6.8 L 41.7,6.8 C 41.9,6.8 42,6.9 42,7.1 L 42,40.8 C 42,41 41.9,41.1 41.7,41.1 L 37.9,41.1 L 37.9,41.2 z"
   id="path13" />
		</g>
	</g>
	<g
   id="crop_x0020_marks"
   style="fill-rule:nonzero;stroke:#000000;stroke-miterlimit:4">
		<path
   style="fill:none;stroke:none"
   d="M 48,48 L 0,48 L 0,0 L 48,0 L 48,48 z"
   id="path16" />
	</g>
</svg>
